images/icon-divider.svg

<svg xmlns="http://www.w3.org/2000/svg" width="32" height="30" viewBox="0 0 32 30"><path d="M0 11.5h12.2l3.8-11.5 3.8 11.5h12.2l-9.9 7.1 3.8 11.4-9.9-7.1-9.9 7.1 3.8-11.5-9.9-7zm3.4 1.1l7.8 5.6 4.8-1.5-12.6-4.1zm4.8 14.5l7.8-5.6v-5l-7.8 10.6zm7.8-10.5v-13l-3 9 3 4zm0 0l12.6-4h-9.6l-3 4zm7.8 10.5l-3-9-4.8-1.5 7.8 10.5z"/></svg>

<?xml version="1.0" encoding="utf-8"?>
<!-- Generator: Adobe Illustrator 17.1.0, SVG Export Plug-In . SVG Version: 6.00 Build 0)  -->
<!DOCTYPE svg PUBLIC "-//W3C//DTD SVG 1.1//EN" "http://www.w3.org/Graphics/SVG/1.1/DTD/svg11.dtd">
<svg version="1.1" id="Layer_1" xmlns="http://www.w3.org/2000/svg" xmlns:xlink="http://www.w3.org/1999/xlink" x="0px" y="0px"
	 width="32px" height="30px" viewBox="0 0 32 30" enable-background="new 0 0 32 30" xml:space="preserve">
<g>
	<path d="M0,11.5h12.2L16,0l3.8,11.5H32l-9.9,7.1L25.9,30L16,22.9L6.1,30l3.8-11.5L0,11.5z M3.4,12.6l7.8,5.6l4.8-1.5L3.4,12.6z
		 M8.2,27.1l7.8-5.6v-5L8.2,27.1z M16,16.6v-13l-3,9L16,16.6z M16,16.6l12.6-4H19L16,16.6z M23.8,27.1l-3-9L16,16.6L23.8,27.1z"/>
</g>
</svg>
